material/.icons/material/file-excel-outline.svg

<svg xmlns="http://www.w3.org/2000/svg" viewBox="0 0 24 24"><path d="M14 2H6a2 2 0 00-2 2v16c0 1.11.89 2 2 2h12c1.11 0 2-.89 2-2V8l-6-6m4 18H6V4h7v5h5v11m-5.1-5.5l2.9 4.5H14l-2-3.4-2 3.4H8.2l2.9-4.5L8.2 10H10l2 3.4 2-3.4h1.8l-2.9 4.5z"/></svg>

<?xml version="1.0" encoding="UTF-8"?><!DOCTYPE svg PUBLIC "-//W3C//DTD SVG 1.1//EN" "http://www.w3.org/Graphics/SVG/1.1/DTD/svg11.dtd"><svg xmlns="http://www.w3.org/2000/svg" xmlns:xlink="http://www.w3.org/1999/xlink" version="1.1" id="mdi-file-excel-outline" width="24" height="24" viewBox="0 0 24 24"><path d="M14 2H6C4.89 2 4 2.9 4 4V20C4 21.11 4.89 22 6 22H18C19.11 22 20 21.11 20 20V8L14 2M18 20H6V4H13V9H18V20M12.9 14.5L15.8 19H14L12 15.6L10 19H8.2L11.1 14.5L8.2 10H10L12 13.4L14 10H15.8L12.9 14.5Z" /></svg>
